X:1
T:Partita IV Menuet
T:BWV 828
T:J. S. Bach
%%score { ( 1 4 ) | ( 2 3 ) }
L:1/8
M:3/4
K:D
V:1 treble nm="Harp"
V:4 treble 
V:2 bass 
V:3 bass 
V:1
 f/4e/4f/- f2 g/4f/4e/4f/4 g2 | e2 a/4g/4a3/2- a2 | (3def (3gfe (3agf | %3
 f/4e/4f/4e/4f/4e/4f/4e/4 f/4e/4f/4e/4f/4e/4d/4e/4 d2 | f/4e/4f/- f2 g/4f/4e/4f/4 g2 | %5
 e2 a/4g/4a3/2- a2 | (3def (3gfe (3agf |{f} e6 | f/4e/4f/- f2 g/4f/4e/4f/4 g2 | e2 a/4g/4a3/2- a2 | %10
 (3def (3gfe (3agf | f/4e/4f/4e/4f/4e/4f/4e/4 f/4e/4f/4e/4f/4e/4d/4e/4 d2 | %12
 f/4e/4f/- f2 g/4f/4e/4f/4 g2 | e2 a/4g/4a3/2- a2 | (3def (3gfe (3agf |{f} e6 | (3ABc (3dcB (3cBA | %17
 a2 ed cB | (3ABc (3dcB (3cBA | g6 | (3fed (3cde (3dcB | (3^ABc (3BA^G F2- | (3F^G^A (3Bcd (3edc | %23
 (3def (3gfe (3fga | (3gfg (3Ace (3gfe | (3fef (3^Acd (3edc | (3dcB c2 B/4^A/4^G/4A/4-A | B6 | %28
 F/4E/4F/- F2 G/4F/4-E/4F/4 G2 | A2 [A=c]4 | (3Bcd (3cde (3def | (3edc (3dcB (3Acf | %32
 a/4g/4a/- a2 b/4a/4g/4a/4 b2 | [Ac]2 [eg]4 | (3fed (3efg (3ABc | d6 | (3ABc (3dcB (3cBA | %37
 a2 ed cB | (3ABc (3dcB (3cBA | g6 | (3fed (3cde (3dcB | (3^ABc (3BA^G F2- | (3F^G^A (3Bcd (3edc | %43
 (3def (3gfe (3fga | (3gfg (3Ace (3gfe | (3fef (3^Acd (3edc | (3dcB c2 B/4^A/4^G/4A/4-A | B6 | %48
 F/4E/4F/- F2 G/4F/4-E/4F/4 G2 | A2 [A=c]4 | (3Bcd (3cde (3def | (3edc (3dcB (3Acf | %52
 a/4g/4a/- a2 b/4a/4g/4a/4 b2 | [Ac]2 [eg]4 | (3fed (3efg (3ABc | !fermata!d6 |] %56
V:2
 z2 DC D2- | D2 CB, C2 | D2 C2 D2- | D2 C2 DA, | D2 A,2 B,2 | G,2 E,4 | %6
 (3:2:2F,,2 D, (3:2:2E,,2 C, (3:2:2D,,2 D,- | D,B,, C,E, A,2 | z2 DC D2- | D2 CB, C2 | D2 C2 D2- | %11
 D2 C2 DA, | D2 A,2 B,2 | G,2 E,4 | (3:2:2F,,2 D, (3:2:2E,,2 C, (3:2:2D,,2 D,- | D,B,, C,E, A,2 | %16
 z6 | A,,B,, C,D, E,F, | G,2 z4 | ^A,,B,, C,D, E,C, | z2 [B,E]2 [G,B,]2 | z2 C4- | C2 B,2 ^A,2 | %23
 [F,B,]2 E,2 B,2- | B,2 E,2 [C,E,]2 | D,2 [E,G,]2 F,2- | F,2 E,2 C,2 | B,,4 (3B,,D,F, | %28
 B,2 A,G, F,E, | F,G,/A,/ G,F, E,D, | (3:2:2G,2 F, (3:2:2G,2 E, (3:2:2F,2 D, | %31
 (3:2:2A,2 E, (3:2:2A,,2 C, (3:2:2E,2 G, | F,2 [D,F,A,]2 G,2- | (3G,F,E, (3D,C,B,, (3C,B,,A,, | %34
 D,2 [B,,G,]2 G,2- | G,E, F,D, D,2 | z6 | A,,B,, C,D, E,F, | G,2 z4 | ^A,,B,, C,D, E,C, | %40
 z2 [B,E]2 [G,B,]2 | z2 C4- | C2 B,2 ^A,2 | [F,B,]2 E,2 B,2- | B,2 E,2 [C,E,]2 | D,2 [E,G,]2 F,2- | %46
 F,2 E,2 C,2 | B,,4 (3B,,D,F, | B,2 A,G, F,E, | F,G,/A,/ G,F, E,D, | %50
 (3:2:2G,2 F, (3:2:2G,2 E, (3:2:2F,2 D, | (3:2:2A,2 E, (3:2:2A,,2 C, (3:2:2E,2 G, | %52
 F,2 [D,F,A,]2 G,2- | (3G,F,E, (3D,C,B,, (3C,B,,A,, | D,2 [B,,G,]2 G,2- | G,E, F,D, !fermata!D,2 |] %56
V:3
 D,4 B,2 | G,6 | [F,A,]2 [E,G,A,]2 [D,F,A,]2 | A,4 D,2 | z2 D,4- | D,2 C,B,, A,,G,, | %6
 F,,2 E,,2 D,,2 | A,,6 | D,4 B,2 | G,6 | [F,A,]2 [E,G,A,]2 [D,F,A,]2 | A,4 D,2 | z2 D,4- | %13
 D,2 C,B,, A,,G,, | F,,2 E,,2 D,,2 | A,,6 | x6 | x6 | x6 | x6 | D,2 G,2 E,2 | F,3 D, E,>C, | %22
 D,4 C,2 | B,,2 C,2 ^D,2 | E,2 C,2 A,,2 | D,,2 C,2 [^A,,C,]2 | B,,2 E,,2 F,,2 | x6 | x6 | x6 | x6 | %31
 x6 | x6 | x6 | D,2 G,,2 [A,,E,]2 | D,3 D, D,,2 | x6 | x6 | x6 | x6 | D,2 G,2 E,2 | F,3 D, E,>C, | %42
 D,4 C,2 | B,,2 C,2 ^D,2 | E,2 C,2 A,,2 | D,,2 C,2 [^A,,C,]2 | B,,2 E,,2 F,,2 | x6 | x6 | x6 | x6 | %51
 x6 | x6 | x6 | D,2 G,,2 [A,,E,]2 | D,3 D, D,,2 |] %56
V:4
 x6 | x6 | x6 | x6 | x6 | x6 | x6 | x6 | x6 | x6 | x6 | x6 | x6 | x6 | x6 | x6 | x6 | x6 | x6 | %19
 x6 | x6 | x6 | x6 | x6 | x6 | x6 | x6 | (3z DB,[I:staff +1] (3B,F,D,[I:staff -1] z2 | D6- | D6 | %30
 x6 | x6 | z2[I:staff +1] D2 D2 |[I:staff -1] E2 A4 | x6 | x6 | x6 | x6 | x6 | x6 | x6 | x6 | x6 | %43
 x6 | x6 | x6 | x6 | (3z DB,[I:staff +1] (3B,F,D,[I:staff -1] z2 | D6- | D6 | x6 | x6 | %52
 z2[I:staff +1] D2 D2 |[I:staff -1] E2 A4 | x6 | x6 |] %56

